!!!SOCIAL_FUNCTION:	songs of the sun dance
!!!PDT:	1918

Specific Region: Dakotas, Minnesota, Montana, Nebraska
!!!REG: Dakotas and Montana
!!!LING_GROUP: Siouan
!!!LANG: Tone
!!!OTL@ENG: With Dauntless Courage
!!!ONM: No. 7
**kern
*Imale
*clefF4
*k[f#]
*M2/4
*MM96
8f#
=1
16f#
8.e
8.e
16B
=2
8e
8e
16e
8.B
=3||
*M3/4
2B
8B
8f#
=4||
*M2/4
16f#
8.e
8.e
16B
=5
8e
8e
16e
8.B
=6
16B
8.B
8A
8G
=7
8B
[8B
8B]
8A
=8
16A
8.A
8G
8E
=9
8E
[8E
8E]
8E
=10||
*M3/4
2.E
=11||
*M2/4
8F#
8E
8.E
16BB
=12||
*M3/4
8F#
8F#
16F#
8.E
8.BB
16BB
=13
[2BB
8.BB]
16BB
=14
2BB
8B
8B
=15
8f#
8f#
16f#
8.e
(8.e
16B)
=16||
*M2/4
8e
8e
16e
8.B
=17
16e
8.B
8A
8G
=18
8B
8B
16B
8.A
=19
16B
8.A
8G
8F#
=20
8E
[8E
8E]
8E
=21||
*M3/4
2.E
=22||
*M2/4
8F#
8E
8.E
16BB
=23||
*M3/4
8F#
8F#
8F#
8E
8.BB
16BB
=24||
*M2/4
2BB
=25
4BB
4r
==
*-
!!!CNT: Native American -- Sioux
!!!MRD: 1911/07//-1914///
!!!OCL: Frances Densmore
!!!YOR1: Teton Sioux Music, Bulletin 61,
!!!YOR2: Bureau of American Ethnology, Smithsonian Institution
!!!PPR: Government Printing Office
!!!PPP: Washington, D.C.
!!!PDT: 1918///
!!!ENC: Craig Stuart Sapp
!!!END: 2002/03/25/
!!!EEV: 2002/03/31/
!!!AGN: Ceremonial Song/Song of the Sun Dance
!!!MPN@@SIO: Ishn'la-wicha'
!!!MPN@ENG: Lone Man
!!!TXO: Teton Sioux
!!!MLC: Standing Rock Reservation, South Dakota, United States of America
!!!ARL: 45.9/-100.7#
!!!catalog: Catalogue No. 488
!!!PPG: 108
!!!EFL: 7/245
!!!VTS: 4014269848
